**kern	**silbe
*ICvox	*
=1	=1
*B-:	*
*M4/4	*
*clefF4	*
1r	.
=2	=2
1r	.
=3	=3
1r	.
=4	=4
1r	.
=5	=5
4D	You've
8D	cut
[8D	out
4D]	_
8C	your
[8C	dan
=6	=6
8C]	_
8BB-	cing,
4r	.
8r	.
[8D	and
8D]	_
8D	you
=7	=7
8E-	ne-
[8E-	-ver
4E-]	_
8E-	see
[8D	a
8D]	_
[8C	show
=8	=8
8C]	_
8r	.
4r	.
4r	.
8D	Your
[8E-	friends
=9	=9
4E-]	_
4E-	come
4.E-	by
8D	to
=10	=10
4D	pick
8C	you
[8C	up,
8C]	_
[8D	and
8D]	_
8E-	you
=11	=11
[4F	hard
8F]	_
8G	ly
8F	e-
[8E-	-ver
8E-]	_
[8D	go
=12	=12
4D]	_
4r	.
4r	.
8F	It
[8G	seems
=13	=13
4G]	_
4F#	your
4G	head
8A	is
[8B-	in
=14	=14
4B-]	_
8B-	the
[8A	clouds
4A]	_
8G	a-
[8F	-bove
=15	=15
2.F]	...
4r	.
=16	=16
4r	.
4AA	you've
4BB-	got
8C	the
[8D	ways
=17	=17
2.D_	_
8D]	_
8r	.
4r	.
4BB-	(you've
4AA	got
4GG	the
=18	=18
4r	.
8FF	of
8FF	a
8AA	wo-
8AA	-man
4C	in
2FF	ways)
=19	=19
2BB-	love.
2BB-	(In
=20	=20
2BB-	love...)
2r	.
=21	=21
8D	I
[8D	walked
4D]	_
4D	by
8C	your
[8C	house
=22	=22
4C]	_
8BB-	to-
[8BB-	-night
8BB-]	_
4.D	and
=23	=23
4E-	hoped
8E-	that
[8E-	I
4E-]	_
8D	might
[8C	see
=24	=24
4C]	...
4r	.
4r	.
8D	the
[8E-	guy
=25	=25
4E-]	_
4E-	who's
8E-	got
[8D	you
8D]	_
[8D	in
=26	=26
4D]	_
4C	a
4C	spin,
8E-	I
[8F	wish
=27	=27
4F]	_
4F	that
4F	guy
4E-	was
=28	=28
4D	me!
4r	.
4r	.
8F	I
[8G	don't
=29	=29
4G]	_
4G	know
4G	why
8G	it's
[8G	you
=30	=30
8G]	_
[8G	I'm
4G]	_
4F	drea-
8E-	-ming
[8F	of
=31	=31
2.F]	...
4r	.
=32	=32
4r	.
4AA	you've
4BB-	got
8C	the
8D	ways
=33	=33
[2.D	_
8D]	_
8r	.
4r	.
4BB-	(you've
4AA	got
4GG	the
=34	=34
4r	.
8FF	of
8FF	a
8AA	wo-
8AA	-man
4C	in
2FF	ways)
=35	=35
2BB-	love.
2BB-	(In
=36	=36
2BB-	love...)
2r	.
=37	=37
8G	Ma-
[8G	-ny
4G]	_
4G	is
8A	the
[8B-	night
=38	=38
2B-_	_
8B-]	_
[8G	I've
4G]	_
=39	=39
4F	stayed
8F	a-
[8F	-wake
8F]	_
[8D	and
4D]	_
=40	=40
[4F	cried
8F]	...
8r	.
2r	.
=41	=41
4G	Now
4G	you'll
8G	ne-
[8A	-ver
8A]	_
[8B-	know
=42	=42
8B-]	_
[8B-	how
8B-]	_
[8A	much
8A]	_
[8G	you
8G]	_
[8F	hurt
=43	=43
4F]	_
4F	my
4E-	foo-
4D	-lish
=44	=44
2.C	pride...
4r	.
=45	=45
1r	.
=46	=46
4D	I
8D	re-
[8D	-call
4D]	_
4C	your
=47	=47
8C	kis-
[8BB-	-ses,
4BB-]	_
4r	.
8D	the
[8E-	times
=48	=48
4E-]	_
4E-	I
4E-	held
8D	you
[8C	tight,
=49	=49
4C]	_
4r	.
4r	.
4D	now
=50	=50
8E-	when
[8E-	I
4E-]	_
4.E-	come
8D	to
=51	=51
8D	see
[8C	you,
4C]	_
4r	.
4E-	you're
=52	=52
8F	sit-
[8F	-ting
8F]	_
[8F	in
4F]	_
8E-	the
[8D	light
=53	=53
4D]	_
4r	.
2r	.
=54	=54
8G	Mis-
[8G	-sing
8G]	_
[8G	all
4G]	_
8G	the
[8G	things
=55	=55
4G]	_
8G	that
[8F	we
4F]	_
4E-	dreamed
=56	=56
1F	of...
=57	=57
4r	.
4AA	you've
4BB-	got
8C	the
8D	ways
=58	=58
[2.D	_
8D]	_
8r	.
4r	.
4BB-	(you've
4AA	got
4GG	the
=59	=59
4r	.
8FF	of
8FF	a
8AA	wo-
8AA	-man
4C	in
2FF	ways)
=60	=60
2BB-	love.
2BB-	(In
=61	=61
2BB-	love...)
2r	.
=62	=62
1r	.
=63	=63
1r	.
=64	=64
1r	.
=65	=65
1r	.
=66	=66
1r	.
=67	=67
1r	.
=68	=68
1r	.
=69	=69
1r	.
=70	=70
1r	.
=71	=71
1r	.
=72	=72
1r	.
=73	=73
1r	.
=74	=74
1r	.
=75	=75
1r	.
=76	=76
1r	.
=77	=77
1r	.
=78	=78
8G	Ma-
[8G	-ny
4G]	_
4G	is
8A	the
[8B-	night
=79	=79
2B-_	_
8B-]	_
[8G	I've
4G]	_
=80	=80
4F	stayed
8F	a-
[8F	-wake
8F]	_
8E-	and
4D	_
=81	=81
4.F	cried
8r	.
2r	.
=82	=82
4G	Now
4G	you'll
8G	ne-
[8A	-ver
8A]	_
[8B-	know
=83	=83
8B-]	_
[8B-	how
8B-]	_
[8A	much
8A]	_
[8G	you
8G]	_
[8F	hurt
=84	=84
4F]	_
4F	my
4E-	foo-
4D	-lish
=85	=85
1C	pride...
=86	=86
1r	.
=87	=87
4D	I
8D	re-
[8D	-call
4D]	_
4C	your
=88	=88
8C	kis-
[8BB-	-ses,
4BB-]	_
4r	.
8D	the
[8E-	times
=89	=89
4E-]	_
4E-	I
4E-	held
8D	you
[8C	tight,
=90	=90
4C]	_
4r	.
4r	.
4D	now
=91	=91
8E-	when
[8E-	I
4E-]	_
4.E-	come
8D	to
=92	=92
8D	see
[8C	you,
4C]	_
4r	.
4E-	you're
=93	=93
8F	sit-
[8F	-ting
8F]	_
[8F	in
4F]	_
8E-	the
[8D	light
=94	=94
4D]	_
4r	.
2r	.
=95	=95
8G	Mis-
[8G	-sing
8G]	_
[8G	all
4G]	_
8G	the
[8G	things
=96	=96
4G]	_
8G	that
[8F	we
4F]	_
4E-	dreamed
=97	=97
1F	of...
=98	=98
4r	.
4AA	You've
4BB-	got
8C	the
8D	ways
=99	=99
[2.D	_
8D]	_
8r	.
4r	.
4BB-	(you've
4AA	got
4GG	the
=100	=100
4r	.
8FF	of
8FF	a
8AA	wo-
8AA	-man
4C	in
2FF	ways)
=101	=101
2BB-	love.
2BB-	(In
=102	=102
2BB-	love...)
2r	.
=103	=103
1D	_
4r	.
4BB-	(you've
4AA	got
4GG	the
=104	=104
4r	.
8FF	of
8FF	a
8AA	wo-
8AA	-man
4C	in
2FF	ways)
=105	=105
2BB-	love.
2BB- F B- d	(In
=106	=106
1BB-; F B- d	love...)
=107	=107
1r	.
*-	*-
!!!ENC: Nathaniel Condit-Schultz